src/icons/logo.svg

<svg viewBox="0 0 104 29" fill="none" xmlns="http://www.w3.org/2000/svg">
<path class="fill-zinc-500 dark:fill-zinc-300" d="M2.15625 17.5199V14.5199L14.1562 9.23579V12.6875L5.94034 15.9858L6.05114 15.8068V16.233L5.94034 16.054L14.1562 19.3523V22.804L2.15625 17.5199ZM80.9124 4.72727L75.2874 25.625H72.1595L77.7845 4.72727H80.9124ZM92.9691 17.5199L80.9691 22.804V19.3523L89.185 16.054L89.0742 16.233V15.8068L89.185 15.9858L80.9691 12.6875V9.23579L92.9691 14.5199V17.5199Z" fill="#D4D4D8"/>
<path class="fill-zinc-900 dark:fill-white" d="M23.3467 15.4318V23H19.7161V9.90909H23.1763V12.2188H23.3297C23.6195 11.4574 24.1053 10.8551 24.7871 10.4119C25.4689 9.96307 26.2956 9.73864 27.2672 9.73864C28.1763 9.73864 28.9689 9.9375 29.645 10.3352C30.3212 10.733 30.8467 11.3011 31.2217 12.0398C31.5967 12.7727 31.7842 13.6477 31.7842 14.6648V23H28.1536V15.3125C28.1592 14.5114 27.9547 13.8864 27.5399 13.4375C27.1251 12.983 26.5541 12.7557 25.8268 12.7557C25.3382 12.7557 24.9064 12.8608 24.5314 13.071C24.1621 13.2812 23.8723 13.5881 23.6621 13.9915C23.4575 14.3892 23.3524 14.8693 23.3467 15.4318ZM34.4057 23V9.90909H37.9256V12.1932H38.062C38.3006 11.3807 38.7012 10.767 39.2637 10.3523C39.8262 9.93182 40.4739 9.72159 41.2069 9.72159C41.3887 9.72159 41.5847 9.73295 41.7949 9.75568C42.0052 9.77841 42.1898 9.80966 42.3489 9.84943V13.071C42.1785 13.0199 41.9427 12.9744 41.6415 12.9347C41.3404 12.8949 41.0648 12.875 40.8148 12.875C40.2807 12.875 39.8035 12.9915 39.383 13.2244C38.9682 13.4517 38.6387 13.7699 38.3944 14.179C38.1557 14.5881 38.0364 15.0597 38.0364 15.5938V23H34.4057ZM47.344 23.2472C46.5088 23.2472 45.7645 23.1023 45.111 22.8125C44.4576 22.517 43.9406 22.0824 43.5599 21.5085C43.1849 20.929 42.9974 20.2074 42.9974 19.3438C42.9974 18.6165 43.1309 18.0057 43.398 17.5114C43.665 17.017 44.0287 16.6193 44.4889 16.3182C44.9491 16.017 45.4718 15.7898 46.0571 15.6364C46.648 15.483 47.2673 15.375 47.915 15.3125C48.6764 15.233 49.29 15.1591 49.7559 15.0909C50.2218 15.017 50.5599 14.9091 50.7701 14.767C50.9804 14.625 51.0855 14.4148 51.0855 14.1364V14.0852C51.0855 13.5455 50.915 13.1278 50.5741 12.8324C50.2389 12.5369 49.7616 12.3892 49.1423 12.3892C48.4889 12.3892 47.969 12.5341 47.5826 12.8239C47.1963 13.108 46.9406 13.4659 46.8156 13.8977L43.4576 13.625C43.6281 12.8295 43.9633 12.142 44.4633 11.5625C44.9633 10.9773 45.6082 10.5284 46.398 10.2159C47.1934 9.89773 48.1139 9.73864 49.1593 9.73864C49.8866 9.73864 50.5826 9.82386 51.2474 9.99432C51.9179 10.1648 52.5116 10.429 53.0287 10.7869C53.5514 11.1449 53.9633 11.6051 54.2645 12.1676C54.5656 12.7244 54.7162 13.392 54.7162 14.1705V23H51.273V21.1847H51.1707C50.9605 21.5938 50.6792 21.9545 50.327 22.267C49.9747 22.5739 49.5514 22.8153 49.0571 22.9915C48.5628 23.1619 47.9917 23.2472 47.344 23.2472ZM48.3838 20.7415C48.9179 20.7415 49.3895 20.6364 49.7985 20.4261C50.2076 20.2102 50.5287 19.9205 50.7616 19.5568C50.9946 19.1932 51.111 18.7812 51.111 18.321V16.9318C50.9974 17.0057 50.8412 17.0739 50.6423 17.1364C50.4491 17.1932 50.2304 17.2472 49.986 17.2983C49.7417 17.3437 49.4974 17.3864 49.2531 17.4261C49.0088 17.4602 48.7872 17.4915 48.5883 17.5199C48.1622 17.5824 47.79 17.6818 47.4718 17.8182C47.1537 17.9545 46.9065 18.1392 46.7304 18.3722C46.5542 18.5994 46.4662 18.8835 46.4662 19.2244C46.4662 19.7188 46.6451 20.0966 47.0031 20.358C47.3667 20.6136 47.827 20.7415 48.3838 20.7415ZM59.5344 27.9091C59.0742 27.9091 58.6424 27.8722 58.2389 27.7983C57.8412 27.7301 57.5117 27.642 57.2503 27.5341L58.0685 24.8239C58.4946 24.9545 58.8782 25.0256 59.2191 25.0369C59.5657 25.0483 59.8639 24.9688 60.1139 24.7983C60.3696 24.6278 60.577 24.3381 60.7361 23.929L60.9492 23.375L56.2532 9.90909H60.0713L62.7816 19.5227H62.9179L65.6537 9.90909H69.4975L64.4094 24.4148C64.1651 25.1193 63.8327 25.733 63.4122 26.2557C62.9975 26.7841 62.4719 27.1903 61.8355 27.4744C61.1992 27.7642 60.4321 27.9091 59.5344 27.9091Z" fill="white"/>
</svg>

<svg xmlns="http://www.w3.org/2000/svg" fill="none" viewBox="0 0 104 29"><path fill="#D4D4D8" d="M2.156 17.52v-3l12-5.284v3.451L5.94 15.986l.111-.18v.427l-.11-.179 8.215 3.298v3.452l-12-5.284ZM80.912 4.727l-5.625 20.898H72.16l5.625-20.898h3.128ZM92.97 17.52l-12 5.284v-3.452l8.216-3.298-.11.179v-.426l.11.179-8.216-3.299V9.236l12 5.284v3Z" class="fill-zinc-500 dark:fill-zinc-300"/><path fill="#fff" d="M23.347 15.432V23h-3.63V9.91h3.46v2.309h.153a3.652 3.652 0 0 1 1.457-1.807c.682-.449 1.509-.673 2.48-.673.91 0 1.702.198 2.378.596a4.057 4.057 0 0 1 1.577 1.705c.375.733.562 1.608.562 2.625V23h-3.63v-7.688c.005-.8-.2-1.426-.614-1.874-.415-.455-.986-.682-1.713-.682-.489 0-.92.105-1.296.315-.369.21-.659.517-.869.92-.204.398-.31.878-.315 1.44ZM34.406 23V9.91h3.52v2.283h.136c.239-.812.64-1.426 1.202-1.84a3.154 3.154 0 0 1 1.943-.631 5.414 5.414 0 0 1 1.142.127v3.222a4.737 4.737 0 0 0-.707-.136 6.35 6.35 0 0 0-.827-.06c-.534 0-1.011.117-1.432.35a2.573 2.573 0 0 0-.989.954c-.238.41-.358.88-.358 1.415V23h-3.63Zm12.938.247c-.835 0-1.58-.145-2.233-.434a3.595 3.595 0 0 1-1.551-1.304c-.375-.58-.563-1.302-.563-2.165 0-.728.134-1.338.401-1.833.267-.494.63-.892 1.09-1.193a5.321 5.321 0 0 1 1.57-.682c.59-.153 1.21-.261 1.857-.323.761-.08 1.375-.154 1.84-.222.467-.074.805-.182 1.015-.324.21-.142.316-.352.316-.63v-.052c0-.54-.171-.957-.512-1.253-.335-.295-.812-.443-1.432-.443-.653 0-1.173.145-1.56.435a2 2 0 0 0-.766 1.074l-3.358-.273a4.563 4.563 0 0 1 1.005-2.063c.5-.585 1.145-1.034 1.935-1.346.795-.318 1.716-.477 2.761-.477.728 0 1.424.085 2.088.255a5.46 5.46 0 0 1 1.782.793c.522.358.934.818 1.235 1.38.302.557.452 1.225.452 2.004V23h-3.443v-1.815h-.102a3.69 3.69 0 0 1-.844 1.082 3.906 3.906 0 0 1-1.27.724c-.494.17-1.065.256-1.713.256Zm1.04-2.506c.534 0 1.005-.105 1.414-.315.41-.216.73-.505.964-.87.233-.363.349-.775.349-1.235v-1.39c-.114.075-.27.143-.469.205a8.41 8.41 0 0 1-.656.162c-.244.046-.489.088-.733.128l-.665.094a4.49 4.49 0 0 0-1.116.298 1.785 1.785 0 0 0-.742.554c-.176.227-.264.512-.264.852 0 .495.18.873.537 1.134.364.256.824.383 1.38.383Zm11.15 7.168a7.19 7.19 0 0 1-1.295-.11 4.722 4.722 0 0 1-.989-.265l.819-2.71c.426.13.81.202 1.15.213a1.46 1.46 0 0 0 .895-.239c.256-.17.463-.46.622-.869l.213-.554-4.696-13.466h3.818l2.71 9.614h.137l2.736-9.614h3.844l-5.089 14.506a6.09 6.09 0 0 1-.997 1.84c-.414.53-.94.935-1.576 1.22-.637.29-1.404.434-2.302.434Z" class="fill-zinc-900 dark:fill-white"/></svg>
